!!!OTL: "Auf der Lauer" ALS ICH AN EINEM SOMMERTAG
!!!ARE: Europa, Mitteleuropa, Deutschland, Nord - Deutschland
!!!SCT: Z1076
!!!YEM: Copyright 1995, estate of Helmut Schaffrath.
**kern
*ICvox
*Ivox
*M3/4
*k[f#c#g#d#]
*E:
{8B
8e
8f#
=1
4.g#
8a
8f#
8g#
=2
8e
8d#
8e}
{8f#
8g#
8a
=3
4.b
8cc#
8a
8b
=4
4.g#}
{8B
8e
8f#
=5
4.g#
8a
8f#
8g#
=6
8e
8d#
8e}
{8f#
8g#
8a
=7
4.b
8cc#
8a
8b
=8
4.g#}
{8e
8e
8e
=9
8cc#
8dd#
8ee
8cc#
8cc#
8cc#
=10
8.b
16a
8g#}
{8b
8b
8b
=11
4.a
8a
8b
8b
=12
4.g#}
{8e
8e
8e
=13
8cc#
8dd#
8ee
8cc#
8cc#
8cc#
=14
8.b
16a
8g#}
{8b
8b
8b
=15
4.a
8a
8b
8b
=16
4g#
8r}
==
!!!AGN: Romanze, Ballade, Jaeger - Lied
!!!ONB: ESAC (Essen Associative Code) Database: ZUCCAL
!!!AMT: simple triple
!!!AIN: vox
!!!EED: Helmut Schaffrath
!!!EEV: 1.0
*-
